!!!SOCIAL_FUNCTION:	songs of the sun dance
!!!PDT:	1918

Specific Region: Dakotas, Minnesota, Montana, Nebraska
!!!REG: Dakotas and Montana
!!!LING_GROUP: Siouan
!!!LANG: Tone
!!!OTL@ENG: Song of the Departure of the Young Men
!!!ONM: No. 9
**kern
*Imale
*clefF4
*k[b-e-a-d-]
*M2/4
*MM96
4e-
4e-
=2
8e-
8e-
4e-
=3
12e-
12c
12A-
4A-
=4
8A-
8A-
4A-
=5||
*M3/4
12c
12A-
12A-
8A-
8A-
4e-
=6
12c
12A-
12A-
4A-
4A-
=7||
*M2/4
12c
12A-
12A-
8A-
8A-
=8
8A-
8A-
8G-
8E-
=9
*M3/4
12A-
12E-
12E-
4E-
8E-
8E-
=10||
*M2/4
2A-
=11
8A-
8G-
8G-
8E-
=12
12A-
12E-
12E-
4E-
==
*-
!!!CNT: Native American -- Sioux
!!!MRD: 1911/07//-1914///
!!!OCL: Frances Densmore
!!!YOR1: Teton Sioux Music, Bulletin 61,
!!!YOR2: Bureau of American Ethnology, Smithsonian Institution
!!!PPR: Government Printing Office
!!!PPP: Washington, D.C.
!!!PDT: 1918///
!!!ENC: Craig Stuart Sapp
!!!END: 2002/03/25/
!!!EEV: 2002/03/31/
!!!AGN: Ceremonial Song/Song of the Sun Dance
!!!MPN@@SIO: Ishn'la-wicha'
!!!MPN@ENG: Lone Man
!!!TXO: Teton Sioux
!!!MLC: Standing Rock Reservation, South Dakota, United States of America
!!!ARL: 45.9/-100.7#
!!!catalog: Catalogue No. 480
!!!PPG: 110
!!!EFL: 9/245
!!!VTS: 671687113
